; Logo Procedural Art: Fractal Tree
TO TREE :SIZE
  IF :SIZE < 5 [STOP]
  FORWARD :SIZE
  LEFT 30
  TREE :SIZE * 0.7
  RIGHT 60
  TREE :SIZE * 0.7
  LEFT 30
  BACK :SIZE
END

CLEARSCREEN
SETCOLOR BROWN
PENWIDTH 1
SETHEADING 0
TREE 80
