TO POLYGON :SIDES :SIZE
  REPEAT :SIDES [
    FORWARD :SIZE
    RIGHT 360 / :SIDES
  ]
END

TO FLOWER :PETALS
  REPEAT :PETALS [
    SETCOLOR #FF69B4
    POLYGON 4 50
    RIGHT 360 / :PETALS
  ]
END

FLOWER 8
