TO SNOWFLAKE :SIZE :DEPTH
  IF :DEPTH = 0 [
    FORWARD :SIZE
    STOP
  ]
  SNOWFLAKE :SIZE / 3 :DEPTH - 1
  LEFT 60
  SNOWFLAKE :SIZE / 3 :DEPTH - 1
  RIGHT 120
  SNOWFLAKE :SIZE / 3 :DEPTH - 1
  LEFT 60
  SNOWFLAKE :SIZE / 3 :DEPTH - 1
END

TO KOCH :SIZE :DEPTH
  REPEAT 3 [
    SNOWFLAKE :SIZE :DEPTH
    RIGHT 120
  ]
END

PENWIDTH 2
SETCOLOR #87CEEB
PENUP
BACK 150
PENDOWN
KOCH 300 3
