CLEARSCREEN
PENWIDTH 2
SETBGCOLOR #101820
SETCOLOR #00D1FF
TO POLY :SIDES :LEN
  REPEAT :SIDES [FORWARD :LEN RIGHT 360/:SIDES]
END
SETXY -260 0
POLY 3 80
SETXY -90 0
POLY 4 80
SETXY 80 0
POLY 5 80
SETXY 250 0
POLY 6 80
HOME
