CLEARSCREEN
PENWIDTH 3
SETBGCOLOR #87CEEB
SETCOLOR #333333
TO CIRCLE :R
  REPEAT 36 [FORWARD 0.1745 * :R RIGHT 10]
END
PENUP
SETXY 0 -140
PENDOWN
CIRCLE 120
PENUP
SETXY 0 -20
PENDOWN
CIRCLE 80
PENUP
SETXY 0 70
PENDOWN
CIRCLE 50
PENUP
SETXY -15 85
PENDOWN
CIRCLE 5
PENUP
SETXY 15 85
PENDOWN
CIRCLE 5
SETCOLOR ORANGE
PENUP
SETXY 0 75
PENDOWN
RIGHT 20
FORWARD 30
LEFT 20
SETCOLOR #333333
PENUP
SETXY 0 20
PENDOWN
CIRCLE 4
PENUP
SETXY 0 0
PENDOWN
CIRCLE 4
PENUP
SETXY 0 -20
PENDOWN
CIRCLE 4
HOME
