; ========================================
; Procedures - Time Warp Logo
; Demonstrates: TO/END, REPEAT, PENUP/DOWN
; ========================================

TO SQUARE :SIZE
  REPEAT 4 [
    FORWARD :SIZE
    RIGHT 90
  ]
END

; Draw two squares at different positions
SQUARE 50
PENUP
FORWARD 100
PENDOWN
SQUARE 100
