PENWIDTH 3
SETCOLOR BROWN
; Draw square house base
REPEAT 4 [FORWARD 80 RIGHT 90]
; Roof
RIGHT 45
FORWARD 56
RIGHT 90
FORWARD 56
RIGHT 135
; Door
SETCOLOR #333
PENWIDTH 2
RIGHT 90
FORWARD 80
LEFT 90
FORWARD 30
LEFT 90
FORWARD 40
LEFT 90
FORWARD 30
