CS
PENWIDTH 3
; Windows 2000-style colored panes
SETCOLOR 0 120 215
REPEAT 4 [ FORWARD 100 RIGHT 90 ]
RIGHT 45
SETCOLOR 0 200 0
REPEAT 4 [ FORWARD 70 RIGHT 90 ]
LEFT 90
SETCOLOR 230 30 30
REPEAT 4 [ FORWARD 70 RIGHT 90 ]
RIGHT 45
SETCOLOR 255 190 0
REPEAT 4 [ FORWARD 50 RIGHT 90 ]
